src/components/Intro/img/btc.svg

<svg width="228" height="72" viewBox="0 0 228 72" fill="none" xmlns="http://www.w3.org/2000/svg">
<rect x="0.5" y="0.5" width="227" height="71" rx="15.5" stroke="white" stroke-opacity="0.12"/>
<rect x="14" y="14" width="44" height="44" rx="22" fill="#F7931A"/>
<path d="M69.4347 33V18.4545H75.0028C78.1562 18.4545 79.7188 20.0597 79.7188 22.2259C79.7188 23.9943 78.5966 24.9886 77.1761 25.3224V25.4645C78.7244 25.5426 80.2869 26.8352 80.2869 29.0369C80.2869 31.3026 78.6534 33 75.3224 33H69.4347ZM72.0696 30.7983H74.9034C76.8139 30.7983 77.6094 29.9886 77.6094 28.831C77.6094 27.5312 76.6009 26.5369 74.9744 26.5369H72.0696V30.7983ZM72.0696 24.6406H74.6761C76.0469 24.6406 77.0838 23.8452 77.0838 22.5668C77.0838 21.4446 76.2812 20.6278 74.733 20.6278H72.0696V24.6406ZM82.4656 33V22.0909H85.0366V33H82.4656ZM83.7582 20.5426C82.9343 20.5426 82.2667 19.9176 82.2667 19.1506C82.2667 18.3764 82.9343 17.7514 83.7582 17.7514C84.5749 17.7514 85.2425 18.3764 85.2425 19.1506C85.2425 19.9176 84.5749 20.5426 83.7582 20.5426ZM93.1278 22.0909V24.0795H90.9759V29.7188C90.9759 30.7557 91.4943 30.983 92.1406 30.983C92.4602 30.983 92.7514 30.919 92.8935 30.8835L93.3267 32.8935C93.0497 32.9858 92.5455 33.1278 91.8139 33.1491C89.8821 33.206 88.3906 32.1974 88.4048 30.1449V24.0795H86.8565V22.0909H88.4048V19.4773H90.9759V22.0909H93.1278ZM99.9194 33.2131C96.6594 33.2131 94.6921 30.8906 94.6921 27.5881C94.6921 24.2571 96.7092 21.9489 99.9052 21.9489C102.569 21.9489 104.415 23.5043 104.593 25.8693H102.135C101.936 24.8182 101.176 24.0227 99.9407 24.0227C98.3569 24.0227 97.2987 25.3438 97.2987 27.5455C97.2987 29.7756 98.3356 31.1179 99.9407 31.1179C101.07 31.1179 101.915 30.4432 102.135 29.2713H104.593C104.408 31.5866 102.661 33.2131 99.9194 33.2131ZM111.462 33.2131C108.266 33.2131 106.235 30.9616 106.235 27.5881C106.235 24.2074 108.266 21.9489 111.462 21.9489C114.658 21.9489 116.69 24.2074 116.69 27.5881C116.69 30.9616 114.658 33.2131 111.462 33.2131ZM111.477 31.1534C113.217 31.1534 114.083 29.5767 114.083 27.581C114.083 25.5852 113.217 23.9872 111.477 23.9872C109.708 23.9872 108.842 25.5852 108.842 27.581C108.842 29.5767 109.708 31.1534 111.477 31.1534ZM118.872 33V22.0909H121.443V33H118.872ZM120.164 20.5426C119.341 20.5426 118.673 19.9176 118.673 19.1506C118.673 18.3764 119.341 17.7514 120.164 17.7514C120.981 17.7514 121.649 18.3764 121.649 19.1506C121.649 19.9176 120.981 20.5426 120.164 20.5426ZM126.658 26.608V33H124.087V22.0909H126.544V23.9446H126.672C127.169 22.7301 128.291 21.9489 129.925 21.9489C132.176 21.9489 133.668 23.4403 133.661 26.054V33H131.089V26.4517C131.089 24.9957 130.294 24.1222 128.966 24.1222C127.609 24.1222 126.658 25.0312 126.658 26.608Z" fill="white"/>
<path d="M78.9432 46.1477H77.1705C76.8807 44.642 75.6364 43.8068 74.1534 43.8068C72.1477 43.8068 70.6477 45.358 70.6477 48.1818C70.6477 51.0284 72.1534 52.5568 74.1477 52.5568C75.6193 52.5568 76.8693 51.7386 77.1705 50.25L78.9432 50.2557C78.5625 52.5568 76.6932 54.1591 74.1364 54.1591C71.1136 54.1591 68.9034 51.9034 68.9034 48.1818C68.9034 44.4602 71.125 42.2045 74.1364 42.2045C76.5966 42.2045 78.5455 43.6591 78.9432 46.1477ZM80.9077 54V45.2727H82.5497V46.6591H82.6406C82.9588 45.7216 83.8338 45.142 84.8565 45.142C85.0724 45.142 85.4077 45.1591 85.5781 45.1818V46.8068C85.4418 46.767 85.044 46.7045 84.6918 46.7045C83.4872 46.7045 82.6065 47.5284 82.6065 48.6705V54H80.9077ZM88.3878 57.2727C87.8764 57.2727 87.4332 57.1761 87.2287 57.0852L87.6378 55.6932C88.5696 55.9489 89.1776 55.8523 89.6094 54.6932L89.8196 54.1136L86.6264 45.2727H88.4446L90.6548 52.0455H90.7457L92.956 45.2727H94.7798L91.1832 55.1648C90.6776 56.5398 89.7912 57.2727 88.3878 57.2727ZM96.3764 57.2727V45.2727H98.0355V46.6875H98.1776C98.4787 46.1477 99.0639 45.1591 100.683 45.1591C102.791 45.1591 104.348 46.8239 104.348 49.6534C104.348 52.4773 102.814 54.1705 100.7 54.1705C99.1094 54.1705 98.4844 53.1989 98.1776 52.642H98.0753V57.2727H96.3764ZM98.0412 49.6364C98.0412 51.4716 98.8594 52.7216 100.32 52.7216C101.837 52.7216 102.632 51.3864 102.632 49.6364C102.632 47.9034 101.859 46.6023 100.32 46.6023C98.8366 46.6023 98.0412 47.8125 98.0412 49.6364ZM110.325 45.2727V46.6364H108.536V51.4375C108.536 52.4205 109.03 52.6023 109.581 52.6023C109.854 52.6023 110.064 52.5511 110.178 52.5284L110.484 53.9318C110.286 54.0057 109.922 54.108 109.382 54.1136C108.041 54.142 106.831 53.375 106.837 51.7898V46.6364H105.558V45.2727H106.837V43.1818H108.536V45.2727H110.325ZM115.787 54.1761C113.327 54.1761 111.719 52.375 111.719 49.6761C111.719 46.9602 113.327 45.1591 115.787 45.1591C118.247 45.1591 119.855 46.9602 119.855 49.6761C119.855 52.375 118.247 54.1761 115.787 54.1761ZM115.793 52.75C117.389 52.75 118.139 51.3466 118.139 49.6705C118.139 48 117.389 46.5795 115.793 46.5795C114.185 46.5795 113.435 48 113.435 49.6705C113.435 51.3466 114.185 52.75 115.793 52.75Z" fill="#8F8F8F"/>
<rect x="155" y="16" width="51" height="20" rx="10" fill="#5CD16C" fill-opacity="0.2"/>
<path d="M164.422 28.5341V26.2244H162.116V25.0781H164.422V22.7727H165.568V25.0781H167.878V26.2244H165.568V28.5341H164.422ZM172.525 31.0909V30.1364C170.769 30.0256 169.687 29.0753 169.606 27.5881H170.927C170.995 28.4318 171.668 28.8835 172.525 28.973V26.0753L172.112 25.9645C170.71 25.5852 169.84 24.8736 169.84 23.6591C169.84 22.2741 170.978 21.3153 172.525 21.1705V20.1818H173.224V21.1619C174.839 21.2685 175.942 22.2443 175.981 23.5653H174.711C174.626 22.8494 174.055 22.3977 173.224 22.3082V25.0398L173.59 25.1335C174.698 25.4062 176.1 26.0156 176.1 27.5881C176.1 28.9815 175.056 30.017 173.224 30.1321V31.0909H172.525ZM173.224 28.9688C174.153 28.8622 174.796 28.3338 174.796 27.5753C174.796 26.821 174.119 26.5099 173.224 26.267V28.9688ZM172.525 24.8523V22.3168C171.673 22.4318 171.153 22.9304 171.153 23.5824C171.148 24.3324 171.881 24.669 172.525 24.8523ZM177.371 28.2955V27.2301L181.142 21.2727H182.766V27.179H183.921V28.2955H182.766V30H181.509V28.2955H177.371ZM181.517 27.179V22.8409H181.449L178.752 27.1108V27.179H181.517ZM185.223 28.2955V27.2301L188.994 21.2727H190.618V27.179H191.772V28.2955H190.618V30H189.36V28.2955H185.223ZM189.369 27.179V22.8409H189.301L186.603 27.1108V27.179H189.369ZM196.138 30.1193C194.536 30.1193 193.33 29.1136 193.279 27.7244H194.557C194.625 28.4744 195.294 29.0114 196.138 29.0114C197.14 29.0114 197.868 28.2528 197.868 27.2045C197.868 26.1392 197.118 25.3636 196.083 25.3551C195.554 25.3551 194.966 25.5554 194.638 25.8494L193.432 25.6705L193.922 21.2727H198.721V22.402H195.017L194.74 24.8438H194.792C195.132 24.5114 195.733 24.2642 196.381 24.2642C197.971 24.2642 199.147 25.4915 199.142 27.179C199.147 28.8793 197.894 30.1193 196.138 30.1193Z" fill="#44F28A"/>
<path d="M45.4226 32.2965C45.8705 29.3019 43.5906 27.6922 40.4731 26.6183L41.4844 22.5619L39.0151 21.9466L38.0306 25.8962C37.3815 25.7343 36.7148 25.5818 36.0522 25.4305L37.0439 21.4548L34.5762 20.8395L33.5642 24.8947C33.027 24.7724 32.4994 24.6515 31.9875 24.5241L31.9904 24.5113L28.5852 23.661L27.9283 26.2984C27.9283 26.2984 29.7603 26.7183 29.7217 26.7441C30.7217 26.9937 30.9025 27.6556 30.8724 28.1803L29.7204 32.8015C29.7893 32.819 29.8786 32.8443 29.9771 32.8839C29.8947 32.8635 29.8071 32.8411 29.7161 32.8194L28.1014 39.2931C27.9792 39.5968 27.669 40.0528 26.9699 39.8796C26.9946 39.9155 25.1752 39.4317 25.1752 39.4317L23.9492 42.2583L27.1626 43.0593C27.7604 43.2093 28.3462 43.3661 28.9231 43.5136L27.9013 47.6166L30.3677 48.2319L31.3796 44.1724C32.0534 44.3554 32.7073 44.5241 33.3475 44.6831L32.3389 48.7234L34.8083 49.3387L35.83 45.2434C40.0407 46.0403 43.2068 45.719 44.5394 41.9105C45.6132 38.8442 44.4859 37.0755 42.2707 35.9222C43.8842 35.5501 45.0995 34.4889 45.4235 32.2968L45.4227 32.2962L45.4226 32.2965ZM39.7809 40.2076C39.0178 43.2739 33.8551 41.6164 32.1812 41.2007L33.5372 35.765C35.2109 36.1829 40.5784 37.0098 39.781 40.2076H39.7809ZM40.5446 32.252C39.8484 35.0412 35.5514 33.6242 34.1575 33.2767L35.3869 28.3468C36.7808 28.6943 41.2697 29.3428 40.5448 32.252H40.5446Z" fill="white"/>
</svg>

<svg xmlns="http://www.w3.org/2000/svg" width="228" height="72" fill="none" xmlns:v="https://vecta.io/nano"><rect x=".5" y=".5" width="227" height="71" rx="15.5" stroke="#fff" stroke-opacity=".12"/><rect x="14" y="14" width="44" height="44" rx="22" fill="#f7931a"/><path d="M69.435 33V18.455h5.568c3.153 0 4.716 1.605 4.716 3.771 0 1.768-1.122 2.763-2.543 3.096v.142c1.548.078 3.111 1.371 3.111 3.572 0 2.266-1.633 3.963-4.965 3.963h-5.888zm2.635-2.202h2.834c1.91 0 2.706-.81 2.706-1.967 0-1.3-1.008-2.294-2.635-2.294H72.07v4.261zm0-6.158h2.607c1.371 0 2.408-.795 2.408-2.074 0-1.122-.803-1.939-2.351-1.939H72.07v4.013zM82.466 33V22.091h2.571V33h-2.571zm1.293-12.457c-.824 0-1.492-.625-1.492-1.392 0-.774.668-1.399 1.492-1.399.817 0 1.484.625 1.484 1.399 0 .767-.668 1.392-1.484 1.392zm9.37 1.548v1.989h-2.152v5.639c0 1.037.518 1.264 1.165 1.264.32 0 .611-.064.753-.099l.433 2.01c-.277.092-.781.234-1.513.256-1.932.057-3.423-.952-3.409-3.004V24.08h-1.548v-1.989h1.548v-2.614h2.571v2.614h2.152zm6.792 11.122c-3.26 0-5.227-2.322-5.227-5.625 0-3.331 2.017-5.639 5.213-5.639 2.664 0 4.51 1.555 4.688 3.92h-2.458c-.199-1.051-.959-1.847-2.194-1.847-1.584 0-2.642 1.321-2.642 3.523 0 2.23 1.037 3.572 2.642 3.572 1.129 0 1.974-.675 2.194-1.847h2.458c-.185 2.315-1.932 3.942-4.674 3.942zm11.543 0c-3.196 0-5.227-2.251-5.227-5.625 0-3.381 2.031-5.639 5.227-5.639s5.228 2.259 5.228 5.639c0 3.374-2.032 5.625-5.228 5.625zm.015-2.06c1.74 0 2.606-1.577 2.606-3.572s-.866-3.594-2.606-3.594c-1.769 0-2.635 1.598-2.635 3.594s.866 3.572 2.635 3.572zM118.872 33V22.091h2.571V33h-2.571zm1.292-12.457c-.823 0-1.491-.625-1.491-1.392 0-.774.668-1.399 1.491-1.399.817 0 1.485.625 1.485 1.399 0 .767-.668 1.392-1.485 1.392zm6.494 6.065V33h-2.571V22.091h2.457v1.854h.128c.497-1.215 1.619-1.996 3.253-1.996 2.251 0 3.743 1.491 3.736 4.105V33h-2.572v-6.548c0-1.456-.795-2.329-2.123-2.329-1.357 0-2.308.909-2.308 2.486z" fill="#fff"/><path d="M78.943 46.148h-1.773c-.29-1.506-1.534-2.341-3.017-2.341-2.006 0-3.506 1.551-3.506 4.375 0 2.847 1.506 4.375 3.5 4.375 1.472 0 2.722-.818 3.023-2.307l1.773.006c-.381 2.301-2.25 3.903-4.807 3.903-3.023 0-5.233-2.256-5.233-5.977s2.222-5.977 5.233-5.977c2.46 0 4.409 1.455 4.807 3.943zM80.908 54v-8.727h1.642v1.386h.091c.318-.937 1.193-1.517 2.216-1.517.216 0 .551.017.722.04v1.625c-.136-.04-.534-.102-.886-.102-1.205 0-2.085.824-2.085 1.966V54h-1.699zm7.48 3.273c-.511 0-.955-.097-1.159-.187l.409-1.392c.932.256 1.54.159 1.972-1l.21-.58-3.193-8.841h1.818l2.21 6.773h.091l2.21-6.773h1.824l-3.597 9.892c-.506 1.375-1.392 2.108-2.795 2.108zm7.989 0v-12h1.659v1.415h.142c.301-.54.886-1.528 2.505-1.528 2.108 0 3.665 1.665 3.665 4.494 0 2.824-1.534 4.517-3.648 4.517-1.591 0-2.216-.972-2.522-1.528h-.102v4.631h-1.699zm1.665-7.636c0 1.835.818 3.085 2.279 3.085 1.517 0 2.312-1.335 2.312-3.085 0-1.733-.773-3.034-2.312-3.034-1.483 0-2.279 1.21-2.279 3.034zm12.284-4.364v1.364h-1.789v4.801c0 .983.494 1.165 1.045 1.165.273 0 .483-.051.597-.074l.306 1.403c-.198.074-.562.176-1.102.182-1.341.028-2.551-.739-2.545-2.324v-5.153h-1.279v-1.364h1.279v-2.091h1.699v2.091h1.789zm5.462 8.903c-2.46 0-4.068-1.801-4.068-4.5 0-2.716 1.608-4.517 4.068-4.517s4.068 1.801 4.068 4.517c0 2.699-1.608 4.5-4.068 4.5zm.006-1.426c1.596 0 2.346-1.403 2.346-3.08 0-1.67-.75-3.091-2.346-3.091-1.608 0-2.358 1.42-2.358 3.091 0 1.676.75 3.08 2.358 3.08z" fill="#8f8f8f"/><rect x="155" y="16" width="51" height="20" rx="10" fill="#5cd16c" fill-opacity=".2"/><path d="M164.422 28.534v-2.31h-2.306v-1.146h2.306v-2.305h1.146v2.305h2.31v1.146h-2.31v2.31h-1.146zm8.103 2.557v-.955c-1.756-.111-2.838-1.061-2.919-2.548h1.321c.068.844.741 1.295 1.598 1.385v-2.898l-.413-.111c-1.402-.379-2.272-1.091-2.272-2.305 0-1.385 1.138-2.344 2.685-2.489v-.989h.699v.98c1.615.107 2.718 1.082 2.757 2.403h-1.27c-.085-.716-.656-1.168-1.487-1.257v2.732l.366.094c1.108.273 2.51.882 2.51 2.455 0 1.393-1.044 2.429-2.876 2.544v.959h-.699zm.699-2.122c.929-.107 1.572-.635 1.572-1.394s-.677-1.065-1.572-1.308v2.702zm-.699-4.117v-2.535c-.852.115-1.372.614-1.372 1.266-.005.75.728 1.087 1.372 1.27zm4.846 3.443V27.23l3.771-5.957h1.624v5.906h1.155v1.117h-1.155V30h-1.257v-1.704h-4.138zm4.146-1.117v-4.338h-.068l-2.697 4.27v.068h2.765zm3.706 1.117V27.23l3.771-5.957h1.624v5.906h1.154v1.117h-1.154V30h-1.258v-1.704h-4.137zm4.146-1.117v-4.338h-.068l-2.698 4.27v.068h2.766zm6.769 2.94c-1.602 0-2.808-1.006-2.859-2.395h1.278c.068.75.737 1.287 1.581 1.287 1.002 0 1.73-.759 1.73-1.807 0-1.065-.75-1.841-1.785-1.849-.529 0-1.117.2-1.445.494l-1.206-.179.49-4.398h4.799v1.129h-3.704l-.277 2.442h.052c.34-.332.941-.58 1.589-.58 1.59 0 2.766 1.227 2.761 2.915.005 1.7-1.248 2.94-3.004 2.94z" fill="#44f28a"/><path d="M45.423 32.297c.448-2.995-1.832-4.604-4.949-5.678l1.011-4.056-2.469-.615-.984 3.95-1.978-.466.992-3.976-2.468-.615-1.012 4.055-1.577-.371.003-.013-3.405-.85-.657 2.637 1.793.446c1 .25 1.181.912 1.151 1.436l-1.152 4.621c.069.018.158.043.257.082l-.261-.064-1.615 6.474c-.122.304-.432.76-1.132.587.025.036-1.795-.448-1.795-.448l-1.226 2.827 3.213.801 1.761.454-1.022 4.103 2.466.615 1.012-4.059 1.968.511-1.009 4.04 2.469.615 1.022-4.095c4.211.797 7.377.476 8.709-3.333 1.074-3.066-.053-4.835-2.269-5.988 1.614-.372 2.829-1.433 3.153-3.625l-.001-.001h0zm-5.642 7.911c-.763 3.066-5.926 1.409-7.6.993l1.356-5.436c1.674.418 7.041 1.245 6.244 4.443h0zm.764-7.956c-.696 2.789-4.993 1.372-6.387 1.025l1.229-4.93c1.394.347 5.883.996 5.158 3.905h0z" fill="#fff"/></svg>
